static/logos/strapi.svg

<svg width="119" height="31" viewBox="0 0 119 31" fill="none" xmlns="http://www.w3.org/2000/svg">
<path fill-rule="evenodd" clip-rule="evenodd" d="M25.979 4.72705H8.75098V13.3651H17.228C17.53 13.3651 17.775 13.6101 17.775 13.9121V22.2721H26.526V5.27505C26.5261 5.20313 26.5121 5.1319 26.4846 5.06542C26.4572 4.99893 26.4169 4.93852 26.3661 4.88762C26.3153 4.83672 26.255 4.79634 26.1885 4.76878C26.1221 4.74123 26.0509 4.72705 25.979 4.72705V4.72705Z" fill="#37322e"/>
<path opacity="0.405" fill-rule="evenodd" clip-rule="evenodd" d="M8.75005 4.72705V13.3651H0.668045C0.613743 13.365 0.560695 13.3487 0.515633 13.3184C0.470572 13.2881 0.43553 13.2451 0.414957 13.1949C0.394384 13.1446 0.389207 13.0894 0.400084 13.0362C0.41096 12.983 0.4374 12.9342 0.476045 12.8961L8.75005 4.72705ZM18.241 30.4501C18.2026 30.4878 18.1538 30.5134 18.1008 30.5236C18.0478 30.5338 17.993 30.5282 17.9433 30.5073C17.8935 30.4865 17.851 30.4515 17.8211 30.4066C17.7912 30.3617 17.7751 30.309 17.775 30.2551V22.272H26.526L18.241 30.4491V30.4501Z" fill="#37322e"/>
<path opacity="0.405" d="M8.75 13.3652H17.502C17.652 13.3652 17.775 13.4872 17.775 13.6382V22.2722H9.298C9.15293 22.2722 9.0138 22.2146 8.91121 22.112C8.80863 22.0094 8.751 21.8703 8.751 21.7252V13.3652H8.75Z" fill="#37322e"/>
<path fill-rule="evenodd" clip-rule="evenodd" d="M114.771 4.18222C115.26 4.66622 115.837 4.90722 116.503 4.90722C117.19 4.90722 117.778 4.66622 118.267 4.18222C118.756 3.69822 119 3.12822 119 2.46922C119 1.81122 118.756 1.23522 118.267 0.741221C118.04 0.50301 117.766 0.314251 117.462 0.18675C117.159 0.0592494 116.832 -0.0042511 116.503 0.000220796C115.837 0.000220796 115.26 0.247221 114.771 0.740221C114.282 1.23522 114.038 1.81022 114.038 2.47022C114.038 3.12822 114.282 3.69822 114.771 4.18222V4.18222ZM61.711 10.4942C61.711 10.5442 61.669 10.5862 61.618 10.5862H58.183V17.0062C58.183 17.5412 58.319 17.9322 58.589 18.1792C58.859 18.4262 59.255 18.5642 59.775 18.5952C60.251 18.6242 60.831 18.6222 61.516 18.5902L61.613 18.5852C61.6254 18.5845 61.638 18.5864 61.6497 18.5907C61.6614 18.5951 61.6722 18.6017 61.6813 18.6103C61.6903 18.6189 61.6976 18.6293 61.7025 18.6408C61.7074 18.6523 61.71 18.6647 61.71 18.6772V22.1082C61.7101 22.131 61.7018 22.153 61.6866 22.17C61.6715 22.187 61.6506 22.1977 61.628 22.2002L61.565 22.2072C58.875 22.4902 56.972 22.2272 55.858 21.4192C54.724 20.5962 54.158 19.1252 54.158 17.0062V10.5862H51.534C51.5096 10.5862 51.4861 10.5765 51.4689 10.5593C51.4516 10.542 51.442 10.5186 51.442 10.4942V6.85122C51.442 6.80122 51.483 6.75922 51.534 6.75922H54.157V4.21222C54.157 4.13822 54.201 4.07222 54.268 4.04222L58.054 2.39522C58.068 2.38886 58.0834 2.38612 58.0987 2.38726C58.1141 2.3884 58.1289 2.39337 58.1419 2.40173C58.1548 2.41009 58.1655 2.42157 58.1728 2.43511C58.1802 2.44865 58.184 2.46382 58.184 2.47922V6.75922H61.618C61.668 6.75922 61.71 6.80022 61.71 6.85122V10.4942H61.711ZM69.011 9.41422C69.385 8.42622 70.0039 7.68522 70.8669 7.19122C71.7184 6.70648 72.6812 6.45147 73.661 6.45122C73.712 6.45122 73.7539 6.49222 73.7539 6.54422V10.7292C73.7539 10.7502 73.7495 10.7709 73.741 10.79C73.7325 10.8091 73.72 10.8263 73.7045 10.8403C73.6889 10.8543 73.6706 10.865 73.6507 10.8715C73.6308 10.878 73.6098 10.8803 73.5889 10.8782C72.4279 10.7742 71.3849 11.0272 70.4609 11.6362C69.4939 12.2732 69.011 13.3332 69.011 14.8152V22.0992C69.011 22.1114 69.0085 22.1234 69.0039 22.1347C68.9992 22.1459 68.9923 22.1561 68.9837 22.1646C68.975 22.1732 68.9647 22.1799 68.9535 22.1845C68.9422 22.1891 68.9301 22.1914 68.918 22.1912H65.0759C65.0515 22.1912 65.0282 22.1815 65.0109 22.1643C64.9936 22.147 64.984 22.1236 64.984 22.0992V6.85022C64.984 6.80022 65.0249 6.75822 65.0759 6.75822H68.918C68.968 6.75822 69.01 6.79922 69.01 6.85022V9.41222L69.011 9.41422ZM88.0469 6.75922C88.0348 6.75909 88.0227 6.76137 88.0114 6.76593C88.0002 6.7705 87.9899 6.77725 87.9813 6.78581C87.9726 6.79437 87.9657 6.80455 87.961 6.81578C87.9564 6.82701 87.954 6.83905 87.954 6.85122V8.58122C86.748 7.07822 85.0519 6.32722 82.8669 6.32722C80.7869 6.32722 79.0019 7.11422 77.5149 8.68822C76.0269 10.2622 75.2829 12.1912 75.2829 14.4752C75.2829 16.7592 76.0269 18.6882 77.5149 20.2622C79.0019 21.8362 80.7869 22.6232 82.8669 22.6232C85.0519 22.6232 86.747 21.8722 87.954 20.3702V22.0992C87.954 22.1492 87.9959 22.1912 88.0469 22.1912H91.888C91.939 22.1912 91.981 22.1502 91.981 22.0992V6.85022C91.981 6.83805 91.9785 6.82601 91.9739 6.81478C91.9692 6.80355 91.9623 6.79337 91.9537 6.78481C91.945 6.77625 91.9347 6.7695 91.9235 6.76493C91.9122 6.76037 91.9001 6.75809 91.888 6.75822H88.0469V6.75922ZM80.527 17.6232C81.338 18.4262 82.3669 18.8272 83.6169 18.8272C84.8649 18.8272 85.9 18.4202 86.722 17.6072C87.544 16.7952 87.954 15.7512 87.954 14.4752C87.954 13.1992 87.544 12.1552 86.722 11.3422C85.9 10.5302 84.8649 10.1232 83.6159 10.1232C82.3679 10.1232 81.338 10.5302 80.526 11.3432C79.716 12.1552 79.3089 13.1992 79.3089 14.4752C79.3089 15.7512 79.715 16.8002 80.527 17.6232V17.6232ZM109.877 8.68822C108.389 7.11422 106.594 6.32722 104.493 6.32722C102.308 6.32722 100.623 7.07822 99.4369 8.58022V6.85122C99.4369 6.82682 99.4273 6.80342 99.41 6.78617C99.3928 6.76891 99.3694 6.75922 99.345 6.75922H95.5029C95.4785 6.75922 95.4551 6.76891 95.4379 6.78617C95.4206 6.80342 95.411 6.82682 95.411 6.85122V28.2712C95.411 28.3222 95.4519 28.3642 95.5029 28.3642H99.345C99.395 28.3642 99.4369 28.3222 99.4369 28.2712V20.3702C100.623 21.8722 102.308 22.6232 104.493 22.6232C106.594 22.6232 108.389 21.8362 109.877 20.2622C111.364 18.6882 112.108 16.7592 112.108 14.4752C112.108 12.1912 111.364 10.2622 109.877 8.68822V8.68822ZM100.654 17.6232C101.466 18.4262 102.495 18.8272 103.744 18.8272C104.992 18.8272 106.027 18.4202 106.849 17.6072C107.671 16.7952 108.082 15.7512 108.082 14.4752C108.082 13.1992 107.671 12.1552 106.849 11.3422C106.027 10.5302 104.992 10.1232 103.744 10.1232C102.495 10.1232 101.466 10.5302 100.654 11.3432C99.8429 12.1552 99.4369 13.1992 99.4369 14.4752C99.4369 15.7512 99.8429 16.8002 100.654 17.6232V17.6232ZM114.598 22.1912C114.574 22.1912 114.55 22.1815 114.533 22.1643C114.516 22.147 114.506 22.1236 114.506 22.0992V6.85022C114.506 6.80022 114.547 6.75822 114.598 6.75822H118.44C118.491 6.75822 118.532 6.79922 118.532 6.85022V22.1002C118.532 22.1246 118.522 22.148 118.505 22.1653C118.488 22.1825 118.464 22.1922 118.44 22.1922H114.598V22.1912ZM42.813 12.1452C42.261 11.8882 41.986 11.5532 41.986 11.1422C41.986 10.7512 42.157 10.4422 42.501 10.2162C42.844 9.99022 43.276 9.87622 43.796 9.87622C44.793 9.87622 45.546 10.2612 46.056 11.0302C46.073 11.0563 46.0986 11.0756 46.1284 11.0848C46.1582 11.0939 46.1902 11.0923 46.219 11.0802L49.617 9.59322C49.6287 9.58795 49.6392 9.58028 49.6478 9.57069C49.6564 9.5611 49.6629 9.54981 49.6669 9.53756C49.6708 9.5253 49.6722 9.51236 49.6708 9.49955C49.6694 9.48675 49.6654 9.47437 49.659 9.46322C49.6198 9.39802 49.5798 9.33335 49.539 9.26922C48.958 8.36422 48.2049 7.68922 47.2599 7.17622C46.2199 6.61022 45.065 6.32722 43.796 6.32722C42.11 6.32722 40.701 6.76422 39.566 7.63922C38.433 8.51322 37.866 9.71222 37.866 11.2342C37.866 12.2432 38.142 13.0812 38.693 13.7502C39.2255 14.4052 39.9192 14.9104 40.706 15.2162C41.496 15.5242 42.287 15.7822 43.078 15.9872C43.868 16.1932 44.54 16.4252 45.091 16.6822C45.642 16.9392 45.918 17.2732 45.918 17.6852C45.918 18.5702 45.2 19.0122 43.765 19.0122C42.398 19.0122 41.451 18.5122 40.924 17.5142C40.9028 17.4722 40.8664 17.4397 40.8222 17.4236C40.778 17.4074 40.7292 17.4087 40.686 17.4272L37.298 18.9122C37.2867 18.9172 37.2765 18.9244 37.268 18.9333C37.2595 18.9423 37.253 18.9529 37.2487 18.9645C37.2444 18.976 37.2425 18.9884 37.243 19.0007C37.2436 19.013 37.2466 19.0251 37.252 19.0362L37.29 19.1132C38.474 21.4532 40.632 22.6232 43.765 22.6232C45.554 22.6232 47.047 22.1962 48.243 21.3432C49.44 20.4882 50.0379 19.2692 50.0379 17.6852C50.0379 16.6352 49.7619 15.7612 49.2109 15.0612C48.6915 14.3857 47.9946 13.8678 47.198 13.5652C46.4226 13.2716 45.6306 13.0242 44.826 12.8242C44.035 12.6282 43.364 12.4022 42.813 12.1442V12.1452Z" fill="#37322e"/>
</svg>

<svg fill="none" xmlns="http://www.w3.org/2000/svg" viewBox="0 0 119 31"><path fill-rule="evenodd" clip-rule="evenodd" d="M26 4.7H8.8v8.7h8.4c.3 0 .6.2.6.5v8.4h8.7v-17a.5.5 0 00-.5-.6z" fill="#37322e"/><path opacity=".4" fill-rule="evenodd" clip-rule="evenodd" d="M8.8 4.7v8.7H.7a.3.3 0 01-.2-.5l8.3-8.2zm9.4 25.8a.3.3 0 01-.4-.2v-8h8.7l-8.3 8.1z" fill="#37322e"/><path opacity=".4" d="M8.8 13.4h8.7c.2 0 .3 0 .3.2v8.7H9.3a.5.5 0 01-.5-.6v-8.3z" fill="#37322e"/><path fill-rule="evenodd" clip-rule="evenodd" d="M114.8 4.2c.5.5 1 .7 1.7.7s1.3-.2 1.8-.7c.5-.5.7-1 .7-1.7s-.2-1.3-.7-1.8a2.4 2.4 0 00-1.8-.7c-.7 0-1.2.2-1.7.7a2.4 2.4 0 000 3.5zm-53 6.3h-3.6V17c0 .5.1 1 .4 1.2.3.2.7.4 1.2.4H61.7v3.6h-.1c-2.7.3-4.6 0-5.7-.8-1.2-.8-1.7-2.3-1.7-4.4v-6.4h-2.7V6.9v-.1h2.7V4.2 4l3.9-1.6v4.4h3.6v3.7zm7.2-1c.4-1 1-1.8 1.9-2.3.8-.5 1.8-.7 2.8-.7v4.2a.1.1 0 01-.1.2c-1.2-.1-2.2.1-3.1.7-1 .7-1.5 1.7-1.5 3.2v7.3h-4V6.9v-.1h4v2.6zm19-2.7v1.8a6.2 6.2 0 00-5.1-2.3c-2.1 0-3.9.8-5.4 2.4a8.1 8.1 0 00-2.2 5.8c0 2.3.7 4.2 2.2 5.8a7.1 7.1 0 005.4 2.3c2.2 0 3.8-.7 5-2.2V22h4V6.9v-.1H88zm-7.5 10.8c.8.8 1.9 1.2 3.1 1.2 1.3 0 2.3-.4 3.1-1.2.8-.8 1.3-1.8 1.3-3.1a4.2 4.2 0 00-4.4-4.4c-1.2 0-2.3.4-3 1.2-.9.9-1.3 1.9-1.3 3.2 0 1.3.4 2.3 1.2 3.1zm29.4-9a7.1 7.1 0 00-5.4-2.3 6 6 0 00-5 2.3V6.9l-.2-.1h-3.8v21.5h3.9v-8a6 6 0 005 2.3c2.2 0 4-.8 5.5-2.3a8.1 8.1 0 002.2-5.8c0-2.3-.7-4.2-2.2-5.8zm-9.2 9c.8.8 1.8 1.2 3 1.2 1.3 0 2.3-.4 3.1-1.2.9-.8 1.3-1.8 1.3-3.1a4.2 4.2 0 00-4.4-4.4 4.2 4.2 0 00-4.3 4.4c0 1.3.4 2.3 1.3 3.1zm13.9 4.6V6.9v-.1h3.9v15.3h-3.9zm-71.8-10c-.5-.3-.8-.6-.8-1s.2-.8.5-1c.3-.2.8-.3 1.3-.3 1 0 1.7.4 2.3 1.1a.1.1 0 00.1 0l3.4-1.4v-.1-.2a6 6 0 00-2.3-2.1c-1-.6-2.2-.9-3.5-.9-1.7 0-3.1.5-4.2 1.3-1.2 1-1.7 2.1-1.7 3.6 0 1 .2 1.9.8 2.6.5.6 1.2 1.1 2 1.4l2.4.8 2 .7c.5.2.8.6.8 1 0 .9-.7 1.3-2.1 1.3-1.4 0-2.3-.5-2.9-1.5a.2.2 0 00-.2 0l-3.4 1.4v.2c1.2 2.4 3.3 3.5 6.5 3.5 1.8 0 3.2-.4 4.4-1.3 1.2-.8 1.8-2 1.8-3.6 0-1-.2-2-.8-2.6a4.6 4.6 0 00-2-1.5 21 21 0 00-2.4-.8 11 11 0 01-2-.7z" fill="#37322e"/></svg>
